X: 225
T: Essex-Building
P: Longways for as many as will
%R: jig
B: "The Compleat Country Dancing-Master" printed by John Walsh, London ca. 1740
S: 7: DMDfD http://digital.nls.uk/special-collections-of-printed-music/pageturner.cfm?id=89751228 p.155
Z: 2013 John Chambers <jc:trillian.mit.edu>
M: 6/4
L: 1/4
K: C
% - - - - - - - - - - - - - - - - - - - - - - - - -
g |\
e>dc dcB | c2c c>de | c2c c>de | d2d d2g | f>dc dcB | c2c c>ef | fga e2d | d3- d2 |]
d | B>AG B>AG | d2d d2g | e>dc e>dc | f2f f>ga | e>dc d>cB | c3- c2 |]
% - - - - - - - - - - - - - - - - - - - - - - - - -
%%begintext align
%% First cu. double hands and turn down the middle to the second proper, and then all four turn S. then
%% all four hands a-breast, (the 1. man on the out-side left, and the 1. Wo. on the out-side right, of the 2. cu.)
%% and head to the presence, then the 1. cu. double hand and turn to the second proper, then the 1. cu. single
%% hands and lead up, and cast off to the second proper, then all four set their backs and take hands
%% and turn, till the 1. cu. is second proper.
%% [DMDfD]
%%endtext
%%sep 1 8 500

%%sep 1 1 500
%%sep 1 1 500
